!!!COM: Beethoven, Ludwig van
!!!CDT: 1770///-1827///
!!!ODT: 1825///-1826///
!!!OTL: String Quartet No. 13 in B-flat Major, Op. 130
!!!OPS: Op. 130
!!!OMV: Mvmt. 4
!!!OMD: Alla danza tedesca: Allegro assai
!!!PDT: 1827///
!!!PPP: Vienna
!!!ODE: Dem F&uuml;rsten Nicolaus von Galitzin gewindmet
!!!MPD: 1826/03/21/
!!!MPD: 1827/04/22/
**kern	**dynam	**kern	**dynam	**kern	**dynam	**kern	**dynam
*staff4	*staff4	*staff3	*staff3	*staff2	*staff2	*staff1	*staff1
*Icello	*Icello	*Iviola	*Iviola	*Ivioln	*Ivioln	*Ivioln	*Ivioln
*>[A,A,B,B,C]	*>[A,A,B,B,C]	*>[A,A,B,B,C]	*>[A,A,B,B,C]	*>[A,A,B,B,C]	*>[A,A,B,B,C]	*>[A,A,B,B,C]	*>[A,A,B,B,C]
*>norep[A,B,C]	*>norep[A,B,C]	*>norep[A,B,C]	*>norep[A,B,C]	*>norep[A,B,C]	*>norep[A,B,C]	*>norep[A,B,C]	*>norep[A,B,C]
*>A	*>A	*>A	*>A	*>A	*>A	*>A	*>A
*clefF4	*clefF4	*clefC3	*clefC3	*clefG2	*clefG2	*clefG2	*clefG2
*k[f#]	*k[f#]	*k[f#]	*k[f#]	*k[f#]	*k[f#]	*k[f#]	*k[f#]
*G:	*G:	*G:	*G:	*G:	*G:	*G:	*G:
*M3/8	*M3/8	*M3/8	*M3/8	*M3/8	*M3/8	*M3/8	*M3/8
*MM110	*MM110	*MM110	*MM110	*MM110	*MM110	*MM110	*MM110
=1-	=1-	=1-	=1-	=1-	=1-	=1-	=1-
4G\	p	(8G/L	p	(8B/L	p	(8dd\L	p
.	.	8B/	.	8d/	.	8b\	.
8r	.	8G/J)	.	8B/J)	.	16dd\Jk)	.
.	.	.	.	.	.	16r	.
=2	=2	=2	=2	=2	=2	=2	=2
4e\	p	(8B/L	p	(8e/L	p	4.g/	p
.	.	8E/	.	8G/	.	.	.
8r	.	8B/J)	.	8e/J)	.	.	.
=3	=3	=3	=3	=3	=3	=3	=3
4c\	.	(8C/L	.	(8e/L	.	(16a\LL	.
.	.	.	.	.	.	16b\J	.
.	.	8A/	.	8c/	.	8cc\	.
8r	.	8C/J)	.	8a/J)	.	16ee\Jk)	.
.	.	.	.	.	.	16r	.
=4	=4	=4	=4	=4	=4	=4	=4
4d\	p	(8c/L	p	(8a/L	p	(8g/	p
.	.	8D/	.	8cc/	.	4f#/)	.
8r	.	8c/J)	.	8a/J)	.	.	.
=5	=5	=5	=5	=5	=5	=5	=5
(8GG/L	.	(8B/L	.	(8dd\L	.	(8ddd\L	.
8BB/	.	8d/	.	8b\	.	8bb\	.
8GG/J)	.	8B/J)	.	16dd\Jk)	.	16ddd\Jk)	.
.	.	.	.	16r	.	16r	.
=6	=6	=6	=6	=6	=6	=6	=6
(8BB/L	p	(8e/L	p	4.g/	p	4.gg\	p
8EE/	.	8G/	.	.	.	.	.
8BB/J)	.	8e/J)	.	.	.	.	.
=7	=7	=7	=7	=7	=7	=7	=7
(8CC/L	.	(8e/L	.	(16a/LL	.	(16aa\LL	.
.	.	.	.	16b/J	.	16bb\J	.
8AA/	.	8E/	.	8cc/	.	8ccc\	.
8DD/J)	.	8c/J) 8a/	.	16f#/Jk)	.	16ff#\Jk)	.
.	.	.	.	16r	.	16r	.
=8	=8	=8	=8	=8	=8	=8	=8
(8D/L	p	(8c\L 8a\	p	(8f#/	p	(8ff#\	p
8DD/	.	8B\ 8g\	.	4g/)	.	4gg\)	.
8GG/J)	.	8B\J)	.	.	.	.	.
=9:|!|:	=9:|!|:	=9:|!|:	=9:|!|:	=9:|!|:	=9:|!|:	=9:|!|:	=9:|!|:
*>B	*>B	*>B	*>B	*>B	*>B	*>B	*>B
(8B\L	.	(8G/	.	4.r	.	(8ddd\L	.
8A\	.	[4d\)	.	.	.	8ccc\	.
8G\J)	.	.	.	.	.	16bb\Jk)	.
.	.	.	.	.	.	16r	.
=10	=10	=10	=10	=10	=10	=10	=10
(8F#\L	p	4.d\_	p	(8dd\L	p	4.aa\	p
8E\	.	.	.	8cc#\	.	.	.
8F#\J)	.	.	.	16dd\Jk)	.	.	.
.	.	.	.	16r	.	.	.
=11	=11	=11	=11	=11	=11	=11	=11
(8G\L	.	4.d\_	.	4.r	.	(8bb\L	.
8F#\	.	.	.	.	.	8aa\	.
8E\J)	.	.	.	.	.	16gg\Jk)	.
.	.	.	.	.	.	16r	.
=12	=12	=12	=12	=12	=12	=12	=12
(8D/L	.	4.d\_	.	(8dd\L	.	(4.ff#\	.
8C#/	.	.	.	8ee\	.	.	.
8Cn/J	.	.	.	16dd\Jk)	.	.	.
.	.	.	.	16r	.	.	.
=13	=13	=13	=13	=13	=13	=13	=13
8BB/L	.	(8d/L]	.	(8dd\L	.	8ddd\L	.
8AA/	.	8F#/	.	8ccn\	.	8ccc\	.
8GG/J	.	8G/J	.	8b\J	.	8bb\J	.
=14	=14	=14	=14	=14	=14	=14	=14
8FF#/L	.	8A/	.	8a\L	.	8aa\L	.
8EE/	.	&([4D/&)	.	8g\	.	8gg\	.
8FF#/J	.	.	.	8a\J	.	8aa\J	.
=15	=15	=15	=15	=15	=15	=15	=15
8GG/L	.	8D/L]	.	8b\L	.	8bb\L	.
8FF#/	.	8A/	.	8a\	.	8aa\	.
8EE/J	.	8G/J	.	8cc#\J	.	8ccc#\J	.
=16	=16	=16	=16	=16	=16	=16	=16
8DD/L	.	8F#/L	.	8dd\L	.	8ddd\L	.
8CC#/	.	8G/	.	8ee\	.	8eee\	.
8CCn/J	.	8A/J	.	8ff#\J	.	8fff#\J	.
=17	=17	=17	=17	=17	=17	=17	=17
8BB/L)	.	8D/L	.	8gg\L	.	8ggg\L	.
(8BB/	.	8G/	.	8B/	.	8b\	.
8GG/J)	.	8B/J)	.	16d/Jk)	.	16dd\Jk)	.
.	.	.	.	16r	.	16r	.
=18	=18	=18	=18	=18	=18	=18	=18
(8BB/L	p	(8e/L	p	(4G/	p	(4g/	p
8EE/	.	8G/	.	.	.	.	.
8BB/J)	.	8E/J)	.	8g/	.	8gg\	.
=19	=19	=19	=19	=19	=19	=19	=19
(8CC/L	.	(8e\L	.	16a\LL	.	16aa\LL	.
.	.	.	.	16b\J	.	16bb\J	.
8AA/	.	8E/	.	8ccn\	.	8cccn\	.
8CC/J)	.	8A/J)	.	16ee\Jk)	.	16eee\Jk)	.
.	.	.	.	16r	.	16r	.
=20	=20	=20	=20	=20	=20	=20	=20
(8C/L	p	(8A/L	p	(8g/	p	(8gg\	p
8DD/	.	8c/	.	4f#/)	.	4ff#\)	.
8C/J)	.	8A/J)	.	.	.	.	.
=21	=21	=21	=21	=21	=21	=21	=21
(8GG/L	.	(8b\L	.	(8dd\L	.	(8ddd\L	.
8BB/	.	8d\	.	8b\	.	8bb\	.
8GG/J)	.	8g\J)	.	16dd\Jk)	.	16ddd\Jk)	.
.	.	.	.	16r	.	16r	.
=22	=22	=22	=22	=22	=22	=22	=22
(8BB/L	p	(8e/L	p	4.g/	p	4.gg\	p
8EE/	.	8G/	.	.	.	.	.
8BB/J)	.	8e/J)	.	.	.	.	.
=23	=23	=23	=23	=23	=23	=23	=23
(8CC/L	.	(8e\L	.	(16a/LL	.	(16aa\LL	.
.	.	.	.	16b/J	.	16bb\J	.
8AA/	.	8E/	.	8cc/	.	8ccc\	.
8DD/J)	.	8a\J) 8cc\	.	16f#/Jk)	.	16ff#\Jk)	.
.	.	.	.	16r	.	16r	.
=24	=24	=24	=24	=24	=24	=24	=24
(8D/L	p	(8a\L 8cc\	p	(8f#/	p	(8ff#\	p
8DD/	.	8b\	.	4g/)	.	4gg\)	.
8GG/J)	.	8B\J)	.	.	.	.	.
=25:|!	=25:|!	=25:|!	=25:|!	=25:|!	=25:|!	=25:|!	=25:|!
*>C	*>C	*>C	*>C	*>C	*>C	*>C	*>C
4.r	.	(16b\LL	.	4.r	.	(4.gg\	.
.	.	16dd\	.	.	.	.	.
.	.	16cc\	.	.	.	.	.
.	.	16b\	.	.	.	.	.
.	.	16a\	.	.	.	.	.
.	.	16b\JJ)	.	.	.	.	.
=26	=26	=26	=26	=26	=26	=26	=26
*clefC4	*clefC4	*	*	*	*	*	*
(16g\LL	.	4a\	.	(16dd\LL	.	4.aa\)	.
16f#\	.	.	.	16aa\	.	.	.
16e\	.	.	.	16gg\	.	.	.
16d\	.	.	.	16ff#\	.	.	.
16c#\	.	8r	.	16ee\	.	.	.
16d\JJ)	.	.	.	16ff#\JJ)	.	.	.
=27	=27	=27	=27	=27	=27	=27	=27
4cn\	f	(16f#\LL	f	4.dd\ 4.ff#\	f	8ddd'\L	f
.	.	16a\	.	.	.	.	.
.	.	16g\	.	.	.	8ddd'\	.
.	.	16f#\	.	.	.	.	.
8r	.	16e\	.	.	.	8ddd'\J	.
.	.	16f#\JJ)	.	.	.	.	.
=28	=28	=28	=28	=28	=28	=28	=28
(16c\LL	.	4g\	.	(16d/LL	.	(8ddd\	.
16B\	.	.	.	16dd/	.	.	.
16A\	.	.	.	16cc/	.	4ggg\)	.
16G\	.	.	.	16b/	.	.	.
16F#\	.	8r	.	16a/	.	.	.
16G\JJ)	.	.	.	16b/JJ)	.	.	.
=29	=29	=29	=29	=29	=29	=29	=29
*clefF4	*clefF4	*	*	*	*	*	*
[4.G\	p	(16G/LL	p	(16b/LL	p	(4.gg\	p
.	.	16B/	.	16dd/	.	.	.
.	.	16A/	.	16cc/	.	.	.
.	.	16G/	.	16b/	.	.	.
.	.	16F#/	.	16a/	.	.	.
.	.	16G/JJ)	.	16b/JJ)	.	.	.
=30	=30	=30	=30	=30	=30	=30	=30
(16G\LL]	.	16D/LL	.	4a/	.	4.aa\)	.
16F#\	.	(16a\	.	.	.	.	.
16E\	.	16g\	.	.	.	.	.
16D\	.	16f#\	.	.	.	.	.
16C#\	.	16e\	.	8r	.	.	.
16D\JJ)	.	16f#\JJ)	.	.	.	.	.
=31	=31	=31	=31	=31	=31	=31	=31
[4.Cn/	f	(16a\LL	f	(16ff#\LL	f	8ddd'\L	f
.	.	16cc\	.	16aa\	.	.	.
.	.	16b\	.	16gg\	.	8ddd'\	.
.	.	16a\	.	16ff#\	.	.	.
.	.	16g\	.	16ee\	.	8ddd'\J	.
.	.	16a\JJ)	.	16ff#\JJ)	.	.	.
=32	=32	=32	=32	=32	=32	=32	=32
(16C/LL]	.	(16d\LL	.	(16gg\LL	.	4bb\	.
16BB/	.	16g\	.	16dd\	.	.	.
16AA/	.	16f#\	.	16cc\	.	.	.
16GG/	.	16g\	.	16b\	.	.	.
16FF#/	.	16c\	.	16a\	.	8r	.
16GG/JJ)	.	16B\JJ)	.	16b\JJ	.	.	.
=33	=33	=33	=33	=33	=33	=33	=33
4GG/	p	4A/	p	16cc/LL	p	(4.gg\	p
.	.	.	.	16b/	.	.	.
.	.	.	.	16a/	.	.	.
.	.	.	.	16g/	.	.	.
[8e\	.	[8cc\	.	16f#/	.	.	.
.	.	.	.	16g/JJ)	.	.	.
=34	=34	=34	=34	=34	=34	=34	=34
(16e\LL]	.	(16cc\LL]	.	4f#/	.	4.aa\)	.
16d\	.	16b\	.	.	.	.	.
16c\	.	16a\	.	.	.	.	.
16B\	.	16g\	.	.	.	.	.
16A\	.	16f#\	.	[8cc\	.	.	.
16B\JJ)	.	16g\JJ)	.	.	.	.	.
=35	=35	=35	=35	=35	=35	=35	=35
4A\	f	4f#\	f	(16cc/LL]	f	8ddd'\L	f
.	.	.	.	16b/	.	.	.
.	.	.	.	16a/	.	8ddd'\	.
.	.	.	.	16g/	.	.	.
[8c\	.	[8a\	.	16f#/	.	8ddd'\J	.
.	.	.	.	16a/JJ)	.	.	.
=36	=36	=36	=36	=36	=36	=36	=36
(16c\LL]	.	(16a\LL]	.	4g/	.	(8ddd\	.
16B\	.	16d\	.	.	.	.	.
16A\	.	16c\	.	.	.	4ggg\)	.
16G\	.	16B\	.	.	.	.	.
16F#\	.	16A\	.	[8ee\	.	.	.
16G\JJ)	.	16B\JJ)	.	.	.	.	.
=37	=37	=37	=37	=37	=37	=37	=37
4G\	p	(16c/LL	p	(16ee\LL]	p	(4.gg\	p
.	.	16B/	.	16dd\	.	.	.
.	.	16A/	.	16cc\	.	.	.
.	.	16G/	.	16b\	.	.	.
[8G\	.	16F#/	.	16a\	.	.	.
.	.	16G/JJ)	.	16b\JJ)	.	.	.
=38	=38	=38	=38	=38	=38	=38	=38
(16G\LL]	.	4D/	.	(16b/LL	.	4.aa\)	.
16F#\	.	.	.	16a/	.	.	.
16E\	.	.	.	16g/	.	.	.
16D\	.	.	.	16f#/	.	.	.
16C#\	.	[8a\	.	16e/	.	.	.
[16D\JJ)	.	.	.	16f#/JJ)	.	.	.
=39	=39	=39	=39	=39	=39	=39	=39
(16D/LL]	f	(16a\LL]	f	4f#/	f	8ddd'\L	f
16Cn/	.	16d\)	.	.	.	.	.
16BB/	.	(16d\	.	.	.	8ddd'\	.
16AA/	.	16c\	.	.	.	.	.
16GG#/	.	16B\	.	[8cc\	.	8ddd'\J	.
[16AA/JJ)	.	16c\JJ)	.	.	.	.	.
=40	=40	=40	=40	=40	=40	=40	=40
(16AA/LL]	.	(16F#/LL	.	(16cc\LL]	.	8bb\	.
16GGn/	.	16G/	.	16b\	.	.	.
16FF#/	.	16A/	.	16a\	.	8r	.
16GG/	.	16G/	.	16b\	.	.	.
16FFn/	.	16A/	.	16cc\	.	(16gg\LL	.
16DD/JJ)	.	16B/JJ)	.	16dd\JJ)	.	16ffn\JJ)	.
=41	=41	=41	=41	=41	=41	=41	=41
*k[]	*k[]	*k[]	*k[]	*k[]	*k[]	*k[]	*k[]
(4.CC/	p	(4.E/ 4.G/	p	4ee\	p	(16ff\LL	p
.	.	.	.	.	.	16ee\	.
.	.	.	.	.	.	16dd\	.
.	.	.	.	.	.	16cc\	.
.	.	.	.	8r	.	16b\	.
.	.	.	.	.	.	16cc\JJ)	.
=42	=42	=42	=42	=42	=42	=42	=42
4.DD/)	.	4.F/) 4.G/	.	(16ccc\LL	.	4b\	.
.	.	.	.	16bb\	.	.	.
.	.	.	.	16aa\	.	.	.
.	.	.	.	16gg\	.	.	.
.	.	.	.	16ff#\	.	8r	.
.	.	.	.	16gg\JJ)	.	.	.
=43	=43	=43	=43	=43	=43	=43	=43
8GG'/L	f	8F/L 8G/	f	4ffn\	f	(16eee\LL	f
.	.	.	.	.	.	16ddd\	.
8GG'/	.	8F/ 8G/	.	.	.	16ccc\	.
.	.	.	.	.	.	16bb\	.
8GG'/J	.	8F/J 8G/	.	8r	.	16aa\	.
.	.	.	.	.	.	16bb\JJ)	.
=44	=44	=44	=44	=44	=44	=44	=44
(8GG/	.	4.E/ 4.G/	.	(16ff\LL	.	4ccc\	.
.	.	.	.	16ee\	.	.	.
4C/)	.	.	.	16dd\	.	.	.
.	.	.	.	16cc\	.	.	.
.	.	.	.	16b\	.	16eee\LL	.
.	.	.	.	16cc\JJ)	.	16fff\JJ	.
=45	=45	=45	=45	=45	=45	=45	=45
(4.CC/	p	(4.E/ 4.G/	p	(16ff\LL	p	(16fff\LL	p
.	.	.	.	16ee\	.	16eee\	.
.	.	.	.	16dd\	.	16ddd\	.
.	.	.	.	16cc\	.	16ccc\	.
.	.	.	.	16b\	.	16bb\	.
.	.	.	.	16cc\JJ)	.	16ccc\JJ)	.
=46	=46	=46	=46	=46	=46	=46	=46
4.DD/)	.	4.F/) 4.G/	.	(16cc/LL	.	(16ccc\LL	.
.	.	.	.	16b/	.	16bb\	.
.	.	.	.	16a/	.	16aa\	.
.	.	.	.	16g/	.	16gg\	.
.	.	.	.	16f#/	.	16ff#\	.
.	.	.	.	16g/JJ)	.	16gg\JJ)	.
=47	=47	=47	=47	=47	=47	=47	=47
8GG'/L	f	8D/L 8B/	f	(16g/LL	f	(16gg\LL	f
.	.	.	.	16fn/	.	16ffn\	.
8GG'/	.	8D/ 8B/	.	16e/	.	16ee\	.
.	.	.	.	16d/	.	16dd\	.
8GG'/J	.	8D/J 8B/	.	16c#/	.	16cc#\	.
.	.	.	.	16d/JJ)	.	16dd\JJ)	.
=48	=48	=48	=48	=48	=48	=48	=48
4EE/	.	4E/ 4c/	.	(16d/LL	.	(16dd\LL	.
.	.	.	.	16cn/	.	16ccn\	.
.	.	.	.	16B/	.	16b\	.
.	.	.	.	16c/	.	16cc\	.
8r	.	[8f\	.	16d/	.	16dd\	.
.	.	.	.	16c/JJ)	.	16cc\JJ)	.
=49	=49	=49	=49	=49	=49	=49	=49
*clefC4	*clefC4	*	*	*	*	*	*
(4.c\	p	(16f\LL]	p	4c/	p	4cc\	p
.	.	16e\	.	.	.	.	.
.	.	16d\	.	.	.	.	.
.	.	16c\	.	.	.	.	.
.	.	16B\	.	[8ee\	.	8r	.
.	.	16c\JJ)	.	.	.	.	.
=50	=50	=50	=50	=50	=50	=50	=50
4.d\)	.	(16c/LL	.	(16ee\LL]	.	4gg\	.
.	.	16B/	.	16dd\	.	.	.
.	.	16A/	.	16cc\	.	.	.
.	.	16G/	.	16b\	.	.	.
.	.	16F#/	.	16a\	.	[8ggg\	.
.	.	16G/JJ)	.	16b\JJ)	.	.	.
=51	=51	=51	=51	=51	=51	=51	=51
*clefC4	*clefG2	*	*	*	*	*	*
8g'\L	f	(16G/LL	f	(4b\	f	(16ggg\LL]	f
.	.	16A/	.	.	.	16fff\	.
8g'\	.	16G/	.	.	.	16eee\	.
.	.	16Fn/	.	.	.	16ddd\	.
8g'\J	.	16E/	.	16cc\LL	.	16ccc\	.
.	.	16F/JJ)	.	16b\JJ)	.	16ddd\JJ)	.
=52	=52	=52	=52	=52	=52	=52	=52
(8g\	.	(16F/LL	.	(16b\LL	.	(16ddd\LL	.
.	.	16E/	.	16gg\	.	16eee\	.
4cc\)	.	16D/	.	16ff\	.	16bb\	.
.	.	16C/JJ)	.	16ee\	.	16ccc\	.
.	.	[8f\	.	16b\	.	16ddd\	.
.	.	.	.	16cc\JJ)	.	16ccc\JJ)	.
=53	=53	=53	=53	=53	=53	=53	=53
(4.c\	.	(16f\LL]	.	4g/	.	4ccc\	.
.	.	16e\	.	.	.	.	.
.	.	16d\	.	.	.	.	.
.	.	16c\	.	.	.	.	.
.	.	16B\	.	[8ee\	.	8r	.
.	.	16c\JJ)	.	.	.	.	.
=54	=54	=54	=54	=54	=54	=54	=54
4.d\)	.	(16c/LL	.	(16ee\LL]	.	4gg\	.
.	.	16B/	.	16dd\	.	.	.
.	.	16A/	.	16cc\	.	.	.
.	.	16G/	.	16b\	.	.	.
.	.	16F#/	.	16a\	.	[8ggg\	.
.	.	16G/JJ)	.	16b\JJ)	.	.	.
=55	=55	=55	=55	=55	=55	=55	=55
8g'\L	f	(16G/LL	f	4b\	f	(16ggg\LL]	f
.	.	16A/	.	.	.	16fff\	.
8g'\	.	16G/	.	.	.	16eee\	.
.	.	16Fn/	.	.	.	16ddd\	.
8g'\J	.	16E/	.	[8ff\	.	16ccc\	.
.	.	16D/JJ)	.	.	.	16ddd\JJ)	.
=56	=56	=56	=56	=56	=56	=56	=56
4e\	.	(16C/LL	.	(16ff\LL]	.	(16ddd\LL	.
.	.	16c/	.	16ee\	.	16eee\	.
.	.	16f/	.	16dd\	.	16bb\	.
.	.	16e/	.	16cc\	.	16ccc\	.
8r	.	16B/	.	16ff\	.	16ddd\	.
.	.	16c/JJ)	.	16ee\JJ)	.	16eee\JJ)	.
=57	=57	=57	=57	=57	=57	=57	=57
4.r	.	(16c/LL	.	(16ee\LL	.	8eee'\L	.
.	.	16B/	.	16dd\	.	.	.
.	.	16A/	.	16cc\	.	8eee'\	.
.	.	16G#/	.	16b\	.	.	.
.	.	16F#/	.	16a\	.	8eee'\J	.
.	.	16G#/JJ)	.	16b\JJ)	.	.	.
=58	=58	=58	=58	=58	=58	=58	=58
*clefF4	*clefF4	*	*	*	*	*	*
(16d\LL	.	4A/	.	4cc\	.	4ccc\	.
16c\	.	.	.	.	.	.	.
16B\	.	.	.	.	.	.	.
16A\	.	.	.	.	.	.	.
16G#\	.	8r	.	8r	.	8r	.
16A\JJ)	.	.	.	.	.	.	.
=59	=59	=59	=59	=59	=59	=59	=59
8B'\L	.	8d#'\L	.	8b'\L	.	8aa'\L	.
8B'\	.	8e'\	.	8b'\	.	8gg'\	.
8B'\J	.	8a'\J	.	8b'\J	.	8ff#'\J	.
=60	=60	=60	=60	=60	=60	=60	=60
(8B\	.	(8a\L	.	4b\	.	(8ff#\L	.
4e\)	.	8gn\J)	.	.	.	8gg\	.
.	.	(16G/LL	.	(16b\LL	.	8ee\J)	.
.	.	16G#/JJ)	.	16ee\JJ)	.	.	.
=61	=61	=61	=61	=61	=61	=61	=61
8GG#'/L	.	(16e\LL	.	(16ee\LL	.	8eee'\L	.
.	.	16d\	.	16dd\	.	.	.
8AA'/	.	16c\	.	16cc\	.	8eee'\	.
.	.	16B\	.	16b\	.	.	.
8BB'/J	.	16A\	.	16a\	.	8eee'\J	.
.	.	16B\JJ)	.	16b\JJ)	.	.	.
=62	=62	=62	=62	=62	=62	=62	=62
(8GG#/L	.	(8B/L	.	(8b/L	.	4ccc\	.
8AA/	.	8c/	.	8cc/	.	.	.
8C/J)	.	8A/J)	.	8a/J)	.	8r	.
=63	=63	=63	=63	=63	=63	=63	=63
8GGn'/L	.	8B'/L	.	8e'/L	.	8bb'\L	.
8FF#'/	.	8B'/	.	8d#'/	.	8bb'\	.
8F#'/J	.	8c#'/J	.	8e'/J	.	8aa#'\J	.
=64	=64	=64	=64	=64	=64	=64	=64
(8F#\L	.	(8C#/L	.	(8e/L	.	(8aa#\	.
8BB\	.	8D#/	.	8f#/	.	4bb\)	.
8E\J)	.	8E/J)	.	8G/J)	.	.	.
=65	=65	=65	=65	=65	=65	=65	=65
*k[f#]	*k[f#]	*k[f#]	*k[f#]	*k[f#]	*k[f#]	*k[f#]	*k[f#]
(16C/LL	.	(16e\LL	.	(16ee\LL	.	8eee'\L	.
16BB/	.	16dn\	.	16ddn\	.	.	.
16AA/	.	16cn\	.	16cc\	.	8eee'\	.
16GG#/	.	16B\	.	16b\	.	.	.
16FF#/	.	16A\	.	16a\	.	8eee'\J	.
16GG#/JJ)	.	16B\JJ)	.	16b\JJ)	.	.	.
=66	=66	=66	=66	=66	=66	=66	=66
(8GG#/L	.	(8B\L	.	(8b\L	.	4cccn\	.
8AA/	.	8c\	.	8cc\	.	.	.
8C/J)	.	8e\J)	.	8a\J)	.	8r	.
=67	=67	=67	=67	=67	=67	=67	=67
8B'\L	.	8d#'\L	.	8ff#'\L	.	8aan'\L	.
8B'\	.	8e'\	.	8ee'\	.	8gg'\	.
8B'\J	.	8b'\J	.	8a'\J	.	8ff#'\J	.
=68	=68	=68	=68	=68	=68	=68	=68
(8B\	.	4.b\	.	(8a/	.	(8ff#\L	.
4e\)	.	.	.	4g/)	.	8gg\	.
.	.	.	.	.	.	8ee\J)	.
=69	=69	=69	=69	=69	=69	=69	=69
8EE'/L	.	8E'/L	.	(16g#/LL	.	(16eee\LL	.
.	.	.	.	16b/	.	16ddd\	.
8EE'/	.	8E'/	.	16a/	.	16ccc\	.
.	.	.	.	16g#/	.	16bb\	.
8EE'/J	.	8E'/J	.	16f#/	.	16aa\	.
.	.	.	.	16g#/JJ)	.	16bb\JJ)	.
=70	=70	=70	=70	=70	=70	=70	=70
4CC/	.	(8E/	.	8a/	.	(8bb\L	.
.	.	4A/)	.	8r	.	8ccc\	.
8r	.	.	.	8c/	.	8aa\J)	.
=71	=71	=71	=71	=71	=71	=71	=71
8GGn'/L	.	8G'/L	.	8e'/L	.	8bb'\L	.
8FF#'/	.	8F#'/	.	8d#'/	.	8bb'\	.
8F#'\J	.	8c#'/J	.	8e'/J	.	8aa#'\J	.
=72	=72	=72	=72	=72	=72	=72	=72
(8F#\L	.	(8C#/L	.	(8e/L	.	(8aa#\	.
8BB\	.	8D#/	.	8f#/	.	4bb\)	.
8E\J)	.	8E/J)	.	8G/J)	.	.	.
=73	=73	=73	=73	=73	=73	=73	=73
*clefC4	*clefC4	*	*	*	*	*	*
8a'\L	.	8f#'\L	.	4.r	.	8bb'\L	.
8g'\	.	8e'\	.	.	.	8bb'\	.
8f#'\J	.	8d#'\J	.	.	.	8bb'\J	.
=74	=74	=74	=74	=74	=74	=74	=74
(8f#\L	.	(8A/L	.	4.r	.	(8bb\	.
8g\	.	8B/	.	.	.	4eee\)	.
8e\J)	.	8G/J)	.	.	.	.	.
=75	=75	=75	=75	=75	=75	=75	=75
*clefF4	*clefF4	*	*	*	*	*	*
8BB'/L	.	8d#'\L	.	8f#'/L	.	(16bb\LL	.
.	.	.	.	.	.	16aan\	.
8BB'/	.	8e'\	.	8g'/	.	16gg\	.
.	.	.	.	.	.	16ff#\	.
8BB'/J	.	8f#'\J	.	8a'/J	.	16ee\	.
.	.	.	.	.	.	16ff#\JJ)	.
=76	=76	=76	=76	=76	=76	=76	=76
(8BB/	.	(8d#/L	.	(8a/L	.	(8ff#\L	.
4E\)	.	8e/	.	8g/	.	8gg\	.
.	.	8G/J)	.	8B/J)	.	8ee\J)	.
=77	=77	=77	=77	=77	=77	=77	=77
8D#'\L	.	8F#'/L	.	(16b/LL	.	8bb'\L	.
.	.	.	.	16a/	.	.	.
8E'\	.	8G'/	.	16g/	.	8bb'\	.
.	.	.	.	16f#/	.	.	.
8F#'\J	.	8A'/J	.	16e/	.	8bb'\J	.
.	.	.	.	16f#/JJ)	.	.	.
=78	=78	=78	=78	=78	=78	=78	=78
8BB'/L	.	(8A/	.	(8f#/L	.	(8bb\	.
8BB'/	.	4G/)	.	8g/	.	4eee\)	.
8BB'/J	.	.	.	8e/J)	.	.	.
=79	=79	=79	=79	=79	=79	=79	=79
(16BB/LL	.	8d#'\L	.	8f#'/L	.	8bb'\L	.
16AA/	.	.	.	.	.	.	.
16GG/	.	8e'\	.	8g'/	.	8bb'\	.
16FF#/	.	.	.	.	.	.	.
16EE/	.	8f#'\J	.	8a'/J	.	8bb'\J	.
16FF#/JJ)	.	.	.	.	.	.	.
=80	=80	=80	=80	=80	=80	=80	=80
(8FF#/L	.	(8A/L	.	(8a/L	.	(8bb\	.
8GG/	.	8G/	.	8b/	.	4eee\)	.
8EE/J)	.	8B/J)	.	8g/J)	.	.	.
=81	=81	=81	=81	=81	=81	=81	=81
(8GG/L	.	(8B/L	.	(8g\L	.	(8ddd\L	.
8BB/	.	8G/	.	16gg\L	.	8bb\	.
.	.	.	.	16ff#\	.	.	.
8GG/J)	.	8B/J)	.	16gg\	.	16ddd\Jk)	.
.	.	.	.	16b\JJ)	.	16r	.
=82	=82	=82	=82	=82	=82	=82	=82
(8BB/L	p	(8g\L	p	(8b/L	p	4.gg\	p
8EE/	.	8B\	.	16g/L	.	.	.
.	.	.	.	16f#/	.	.	.
8BB/J)	.	8e\J)	.	16g/	.	.	.
.	.	.	.	16B/JJ)	.	.	.
=83	=83	=83	=83	=83	=83	=83	=83
(8CC/L	.	(8E/L	.	(8e/L	.	(16aa\LL	.
.	.	.	.	.	.	16bb\J	.
8AA/	.	8C/	.	16ee\L	.	8ccc\	.
.	.	.	.	16dd\	.	.	.
8CC/J)	.	8c/J)	.	16cc\	.	16eee\Jk)	.
.	.	.	.	16a\JJ)	.	16r	.
=84	=84	=84	=84	=84	=84	=84	=84
(8C/L	p	(8A\L	p	(8a/L	p	(8gg\	p
8DD/	.	8a\	.	16cc/L	.	4ff#\)	.
.	.	.	.	16a/	.	.	.
8C/J)	.	8d\J)	.	16g/	.	.	.
.	.	.	.	16f#/JJ)	.	.	.
=85	=85	=85	=85	=85	=85	=85	=85
(8GG/L	.	(8d/L	.	(8b\L	.	(8ddd\L	.
8BB/	.	8G/	.	16gg\L	.	8bb\	.
.	.	.	.	16ff#\	.	.	.
8GG/J)	.	8B/J)	.	16gg\	.	16ddd\Jk)	.
.	.	.	.	16b\JJ)	.	16r	.
=86	=86	=86	=86	=86	=86	=86	=86
(8BB/L	p	(8E/L	p	(8b/L	p	4.gg\	p
8EE/	.	8e/	.	16g/L	.	.	.
.	.	.	.	16f#/	.	.	.
8BB/J)	.	8G/J)	.	16g/	.	.	.
.	.	.	.	16B/JJ)	.	.	.
=87	=87	=87	=87	=87	=87	=87	=87
(8CC/L	.	(8c/L	.	(16e/LL	.	(16aa\LL	.
.	.	.	.	16d/	.	16bb\J	.
8AA/	.	8E/	.	16c/	.	8ccc\	.
.	.	.	.	16cc/	.	.	.
8DD/J)	.	8c/J)	.	16b/	.	16ff#\Jk)	.
.	.	.	.	16a/JJ)	.	16r	.
=88	=88	=88	=88	=88	=88	=88	=88
(8D/L	p	(8c/L	p	(16a/LL	p	(8ff#\	p
.	.	.	.	16cc/	.	.	.
8DD/	.	8G/	.	16b/	.	4gg\)	.
.	.	.	.	16a/J	.	.	.
8GG/J)	.	8B/J)	.	8g/J)	.	.	.
=89	=89	=89	=89	=89	=89	=89	=89
8GG/	.	8r	.	8r	.	(16d/LL	.
.	.	.	.	.	.	16dd\	.
8r	.	8G/	.	8B/	.	16bb\	.
.	.	.	.	.	.	16ddd\	.
8GG/	.	8r	.	8r	.	16ccc\	.
.	.	.	.	.	.	16bb\JJ)	.
=90	=90	=90	=90	=90	=90	=90	=90
8r	.	8B/	.	8g/	.	(16aa\LL	.
.	.	.	.	.	.	16gg\	.
8EE/	.	8r	.	8r	.	16ff#\	.
.	.	.	.	.	.	16gg\	.
8r	.	8B/	.	8g/	.	16aa\	.
.	.	.	.	.	.	16gg\JJ)	.
=91	=91	=91	=91	=91	=91	=91	=91
8CC/	.	8r	.	8r	.	(16bb\LL	.
.	.	.	.	.	.	16gg#\	.
8r	.	8c\	.	8a/	.	16aa\	.
.	.	.	.	.	.	16bb\	.
8CC/	.	8r	.	8r	.	16ccc\	.
.	.	.	.	.	.	16eee\JJ)	.
=92	=92	=92	=92	=92	=92	=92	=92
8r	.	8A/	.	8cc\	.	(16ggn\LL	.
.	.	.	.	.	.	16ee\	.
8DD/	.	8r	.	8r	.	16gg\	.
.	.	.	.	.	.	16ff#\	.
8r	.	8A/	.	8cc\	.	16ee\	.
.	.	.	.	.	.	16ff#\JJ)	.
=93	=93	=93	=93	=93	=93	=93	=93
8GG/	.	8r	.	8r	.	(16d/LL	.
.	.	.	.	.	.	16dd\	.
8r	.	8B/	.	8g/	.	16bb\	.
.	.	.	.	.	.	16ddd\	.
8GG/	.	8r	.	8r	.	16ccc\	.
.	.	.	.	.	.	16bb\JJ)	.
=94	=94	=94	=94	=94	=94	=94	=94
8r	.	8E/ 8G/	.	8b\	.	(16aa\LL	.
.	.	.	.	.	.	16gg\	.
8EE/	.	8r	.	8r	.	16ff#\	.
.	.	.	.	.	.	16gg\	.
8r	.	8E/ 8G/	.	8b\	.	16aa\	.
.	.	.	.	.	.	16gg\JJ)	.
=95	=95	=95	=95	=95	=95	=95	=95
8CC/	.	8r	.	8r	.	(16gg#\LL	.
.	.	.	.	.	.	16aa\	.
8r	.	8A/L	.	8e/L	.	16bb\	.
.	.	.	.	.	.	16ccc\	.
8DD/	.	8A/J	.	8c/J	.	16ee\	.
.	.	.	.	.	.	16ff#\JJ)	.
=96	=96	=96	=96	=96	=96	=96	=96
8r	.	8d\	.	8cc\	.	(16ff#\LL	.
.	.	.	.	.	.	16a\	.
8DD/L	.	8r	.	8r	.	16ff#\	.
.	.	.	.	.	.	16aa\	.
8GG/J	.	8d\	.	8b\	.	16ff#\	.
.	.	.	.	.	.	16ggn\JJ)	.
=97	=97	=97	=97	=97	=97	=97	=97
4.r	.	(8b\L	.	[4.dd\	.	(16ddd\LL	.
.	.	.	.	.	.	16d/JJ	.
.	.	8a\	.	.	.	16cc\LL	.
.	.	.	.	.	.	16ccc\	.
.	.	8g\J)	.	.	.	16bb\	.
.	.	.	.	.	.	16b\JJ)	.
=98	=98	=98	=98	=98	=98	=98	=98
4.r	.	(8f#\L	.	(8dd\L]	.	(16aa\LL	.
.	.	.	.	.	.	16d\	.
.	.	8e\	.	8ee\	.	16g\	.
.	.	.	.	.	.	16aa\	.
.	.	8f#\J)	.	8dd\J)	.	16gg\	.
.	.	.	.	.	.	16aa\JJ)	.
=99	=99	=99	=99	=99	=99	=99	=99
4.r	.	(8g\L	.	4dd\	.	(16bb\LL	.
.	.	.	.	.	.	16d\	.
.	.	8f#\	.	.	.	16a\	.
.	.	.	.	.	.	16aa\JJ	.
.	.	8e\J)	.	[8a/	.	16cc#\LL	.
.	.	.	.	.	.	16gg\JJ)	.
=100	=100	=100	=100	=100	=100	=100	=100
(8d\L	.	[4.d\	.	(8a/L]	.	(16ff#\LL	.
.	.	.	.	.	.	16d/	.
8c#\	.	.	.	8g/	.	16ee\	.
.	.	.	.	.	.	16ff#\	.
8cn\J	.	.	.	8a/J)	.	16gg\	.
.	.	.	.	.	.	16ff#\JJ)	.
=101	=101	=101	=101	=101	=101	=101	=101
8B\L	.	4.d\_	.	(8dd/L	.	(16ddd\LL	.
.	.	.	.	.	.	16d/JJ	.
8A\	.	.	.	8cc/	.	16dd\LL	.
.	.	.	.	.	.	16ccc\	.
8G\J	.	.	.	8b/J	.	16dd\	.
.	.	.	.	.	.	16bb\JJ)	.
=102	=102	=102	=102	=102	=102	=102	=102
8F#\L	.	4.d\_	.	8a/L	.	(16aa\LL	.
.	.	.	.	.	.	16d/	.
8E\	.	.	.	8g/	.	16dd\	.
.	.	.	.	.	.	16aa\	.
8F#\J	.	.	.	8a/J	.	16bb\	.
.	.	.	.	.	.	16aa\JJ)	.
=103	=103	=103	=103	=103	=103	=103	=103
8G\L	.	4.d\_	.	8b/L	.	(16bb\LL	.
.	.	.	.	.	.	16d/	.
8F#\	.	.	.	8a/	.	16dd\	.
.	.	.	.	.	.	16aa\	.
8E\J	.	.	.	8g/J	.	16dd\	.
.	.	.	.	.	.	16ccc#\JJ)	.
=104	=104	=104	=104	=104	=104	=104	=104
8D\L	.	(8d/L]	.	8f#/L	.	(16ddd\LL	.
.	.	.	.	.	.	16dd\	.
8C#\	.	8G/	.	8a/	.	16eee\	.
.	.	.	.	.	.	16ee\	.
8Cn\J)	.	8A/J)	.	8dd/J)	.	16fff#\	.
.	.	.	.	.	.	16ff#\JJ)	.
=105	=105	=105	=105	=105	=105	=105	=105
8BB/L	.	8D/	.	8dd\	.	16ggg'\LL	.
.	.	.	.	.	.	16G/JJ	.
8GG/J	.	8r	.	8r	.	(16bb\LL	.
.	.	.	.	.	.	16ddd\	.
8r	.	8G/	.	8b\	.	16ccc\	.
.	.	.	.	.	.	16bb\JJ)	.
=106	=106	=106	=106	=106	=106	=106	=106
8EE/	p	8r	p	8r	p	(16aa\LL	p
.	.	.	.	.	.	16gg\	.
8r	.	8G/	.	8b\	.	16ff#\	.
.	.	.	.	.	.	16gg\	.
8EE/	.	8r	.	8r	.	16aa\	.
.	.	.	.	.	.	16gg\JJ)	.
=107	=107	=107	=107	=107	=107	=107	=107
8r	.	8c\	.	8e/ 8a/	.	(16bb\LL	.
.	.	.	.	.	.	16gg#\	.
8CC/	.	8r	.	8r	.	16aa\	.
.	.	.	.	.	.	16bb\	.
8r	.	8c\	.	8ee\	.	16ccc\	.
.	.	.	.	.	.	16eee\JJ)	.
=108	=108	=108	=108	=108	=108	=108	=108
8DD/	p	8r	p	8r	p	(16ggn\LL	p
.	.	.	.	.	.	16ee\	.
8r	.	8A/	.	8f#/	.	16gg\	.
.	.	.	.	.	.	16ff#\	.
8C/	.	8r	.	8r	.	16ee\	.
.	.	.	.	.	.	16ff#\JJ)	.
=109	=109	=109	=109	=109	=109	=109	=109
8BB/	.	8r	.	8r	.	(16ddd\LL	.
.	.	.	.	.	.	16dd\	.
8r	.	8G/	.	8g/	.	16bb\	.
.	.	.	.	.	.	16b\)	.
8GG/	.	8r	.	8r	.	(16ddd\	.
.	.	.	.	.	.	16bb\JJ)	.
=110	=110	=110	=110	=110	=110	=110	=110
8E\	.	8r	.	8r	.	(16ff#\LL	.
.	.	.	.	.	.	16gg\JJ	.
8r	.	8E/ 8G/	.	8b\	.	16g\LL	.
.	.	.	.	.	.	16gg\	.
8E\	.	8r	.	8r	.	16aa\	.
.	.	.	.	.	.	16gg\JJ)	.
=111	=111	=111	=111	=111	=111	=111	=111
8r	.	8E/	.	8cc\	.	(16gg#\LL	.
.	.	.	.	.	.	16aa\	.
8CC/L	.	8r	.	8r	.	16bb\	.
.	.	.	.	.	.	16ccc\	.
8DD/J	.	8c\	.	8a/	.	16ee\	.
.	.	.	.	.	.	16ff#\JJ)	.
=112	=112	=112	=112	=112	=112	=112	=112
8r	p	8B/	p	8g/	p	(16ff#\LL	p
.	.	.	.	.	.	16ggn\	.
8GG/L	.	8r	.	8r	.	16b\	.
.	.	.	.	.	.	16gg\	.
8d\J	.	[8b\	.	8g/	.	16b\	.
.	.	.	.	.	.	16bb\JJ)	.
=113	=113	=113	=113	=113	=113	=113	=113
[4.d\	.	(8b\L]	.	(8dd\L	.	16ddd'\LL	.
.	.	.	.	.	.	(16g\JJ	.
.	.	8a\	.	8ff#\	.	16dd\LL	.
.	.	.	.	.	.	16ccc\	.
.	.	8g\J)	.	8gg\J)	.	16bb\	.
.	.	.	.	.	.	16dd\JJ)	.
=114	=114	=114	=114	=114	=114	=114	=114
4.d\_	p	(8f#\L	p	(8aa\L	p	16aa'\LL	p
.	.	.	.	.	.	(16d/JJ	.
.	.	8e\	.	8g\	.	16dd\LL	.
.	.	.	.	.	.	16aa\	.
.	.	8f#\J)	.	8a\J)	.	16bb\	.
.	.	.	.	.	.	16aa\JJ)	.
=115	=115	=115	=115	=115	=115	=115	=115
4.d\_	.	(8g\L	.	(4dd\	.	16bb'\LL	.
.	.	.	.	.	.	(16d/JJ	.
.	.	8f#\	.	.	.	16dd\LL	.
.	.	.	.	.	.	16aa\	.
.	.	8e\J)	.	8cc#\)	.	16dd\	.
.	.	.	.	.	.	16gg\JJ)	.
=116	=116	=116	=116	=116	=116	=116	=116
(8d\L]	.	[4.d\	.	(8dd\L	.	16ff#'\LL	.
.	.	.	.	.	.	(16f#/JJ	.
8c#\	.	.	.	8ee\	.	16g\LL	.
.	.	.	.	.	.	16gg\JJ	.
8cn\J	.	.	.	8ff#\J	.	16a\LL	.
.	.	.	.	.	.	16aa\JJ)	.
=117	=117	=117	=117	=117	=117	=117	=117
8B\L	.	(8d/L]	.	8gg\L	.	16ddd\LL	.
.	.	.	.	.	.	(16d/	.
8A\	.	8F#/	.	8ccn\	.	16dd\)	.
.	.	.	.	.	.	(16ccc\	.
8G\J	.	8G/J)	.	8b\J	.	16dd\)	.
.	.	.	.	.	.	(16bb\JJ	.
=118	=118	=118	=118	=118	=118	=118	=118
8F#\L	.	[4.d\	.	8a/L	.	16dd\)	.
.	.	.	.	.	.	(16aa\LL	.
8E\	.	.	.	8g/	.	16dd\JJ)	.
.	.	.	.	.	.	(16gg\LL	.
8F#\J	.	.	.	8a/J	.	16dd\JJ)	.
.	.	.	.	.	.	(16aa\	.
=119	=119	=119	=119	=119	=119	=119	=119
8G\L	.	(4d\]	.	8b/L	.	16dd\)	.
.	.	.	.	.	.	(16bb\LL	.
8F#\	.	.	.	8a/	.	16dd\JJ)	.
.	.	.	.	.	.	(16aa\LL	.
8E\J	.	8e\)	.	8g/J	.	16dd\JJ)	.
.	.	.	.	.	.	(16ccc#\	.
=120	=120	=120	=120	=120	=120	=120	=120
8D/L	.	(8A/L	.	8f#/L	.	16ddd\)	.
.	.	.	.	.	.	(16dd\LL	.
8C#/	.	8G/	.	8g/	.	16ee\JJ)	.
.	.	.	.	.	.	(16eee\LL	.
8Cn/J)	.	8A/J)	.	8a/J)	.	16ff#\JJ)	.
.	.	.	.	.	.	16fff#\	.
=121	=121	=121	=121	=121	=121	=121	=121
(8GG/L	p	(8D/L	p	16B'/LL	p	(8ggg\L	p
.	.	.	.	(16b\	.	.	.
8BB/	.	8B/	.	16gg\	.	8bb\	.
.	.	.	.	16ff#\	.	.	.
8GG/J)	.	8g/J)	.	16gg\	.	16ddd\Jk)	.
.	.	.	.	16b\JJ)	.	16r	.
=122	=122	=122	=122	=122	=122	=122	=122
(8BB/L	.	(8e/L	.	16b'/LL	.	4.gg\	.
.	.	.	.	(16G/	.	.	.
8EE/	.	8E/	.	16g/	.	.	.
.	.	.	.	16f#/	.	.	.
8BB/J)	.	8G/J)	.	16g/	.	.	.
.	.	.	.	16B/JJ)	.	.	.
=123	=123	=123	=123	=123	=123	=123	=123
(8CC/L	.	(8c/L	.	(16ee/LL	.	(16aa\LL	.
.	.	.	.	16dd/	.	16bb\J	.
8AA/	.	8E/	.	16cc/	.	8ccc\	.
.	.	.	.	16b/	.	.	.
8CC/J)	.	8c/J)	.	16a/	.	16eee\Jk)	.
.	.	.	.	16c/JJ)	.	16r	.
=124	=124	=124	=124	=124	=124	=124	=124
(8AA/L	.	(8c\L	.	(16cc/LL	.	(8gg\	.
.	.	.	.	16a/	.	.	.
8DD/	.	8a\	.	16cc/	.	4ff#\)	.
.	.	.	.	16b/	.	.	.
8AA/J)	.	8c\J)	.	16cc/	.	.	.
.	.	.	.	16f#/JJ)	.	.	.
=125	=125	=125	=125	=125	=125	=125	=125
(8GG/L	.	(8B/L	.	16b'/LL	.	(8ddd\L	.
.	.	.	.	(16G/	.	.	.
8BB/	.	8G/	.	16g/	.	8bb\	.
.	.	.	.	16f#/	.	.	.
8GG/J)	.	&(8B/J&))	.	16g/	.	16ddd\Jk)	.
.	.	.	.	16B/JJ)	.	16r	.
=126	=126	=126	=126	=126	=126	=126	=126
(8BB/L	p	(8B/L	p	16g'/LL	p	4.gg\	p
.	.	.	.	(16G/	.	.	.
8EE/	.	8E/	.	16b/	.	.	.
.	.	.	.	16a/	.	.	.
8BB/J)	.	8e/J)	.	16g/	.	.	.
.	.	.	.	16e/JJ)	.	.	.
=127	=127	=127	=127	=127	=127	=127	=127
(8CC/L	.	(8c/L	.	(16ee/LL	.	(16aa\LL	.
.	.	.	.	16dd/	.	16bb\J	.
8AA/	.	8E/	.	16cc/	.	8ccc\	.
.	.	.	.	16b/	.	.	.
8DD/J)	.	8F#/J)	.	16a/	.	16ff#\Jk)	.
.	.	.	.	16c/JJ)	.	16r	.
=128	=128	=128	=128	=128	=128	=128	=128
(8D/L	p	(8A/L	p	(16f#/LL	p	(8ff#\	p
.	.	.	.	16c/	.	.	.
8DD/	.	8G/	.	16B/	.	4gg\)	.
.	.	.	.	16c/	.	.	.
8GG/J)	.	8D/J)	.	16B/	.	.	.
.	.	.	.	16g/JJ)	.	.	.
=129	=129	=129	=129	=129	=129	=129	=129
(8f#\	.	4.r	.	4.r	.	4.r	.
4g\)	.	.	.	.	.	.	.
=130	=130	=130	=130	=130	=130	=130	=130
4.r	.	(16a\LL	.	4.r	.	4.r	.
.	.	16b\J	.	.	.	.	.
.	.	8cc\	.	.	.	.	.
.	.	16f#\Jk)	.	.	.	.	.
.	.	16r	.	.	.	.	.
=131	=131	=131	=131	=131	=131	=131	=131
4.r	.	4.r	.	4.gg\	.	4.r	.
=132	=132	=132	=132	=132	=132	=132	=132
4.r	.	4.r	.	4.r	.	(8ddd\L	.
.	.	.	.	.	.	8bb\	.
.	.	.	.	.	.	16ddd\Jk)	.
.	.	.	.	.	.	16r	.
=133	=133	=133	=133	=133	=133	=133	=133
4.r	.	4.r	.	(8dd\L	.	4.r	.
.	.	.	.	8b\	.	.	.
.	.	.	.	16dd\Jk)	.	.	.
.	.	.	.	16r	.	.	.
=134	=134	=134	=134	=134	=134	=134	=134
4.r	.	4.r	.	4.r	.	4.g/	.
=135	=135	=135	=135	=135	=135	=135	=135
4.r	.	(16A/LL	.	4.r	.	4.r	.
.	.	16B/J	.	.	.	.	.
.	.	8c/	.	.	.	.	.
.	.	16e/Jk)	.	.	.	.	.
.	.	16r	.	.	.	.	.
=136	=136	=136	=136	=136	=136	=136	=136
(8G\	.	4.r	.	4.r	.	4.r	.
4F#\	.	.	.	.	.	.	.
=137	=137	=137	=137	=137	=137	=137	=137
8Fn\L	.	(16A/LL	.	4.r	.	4.r	.
.	.	16B/J	.	.	.	.	.
8E\	.	8c/	.	.	.	.	.
8C\J	.	16e/Jk)	.	.	.	.	.
.	.	16r	.	.	.	.	.
=138	=138	=138	=138	=138	=138	=138	=138
8BB/L	.	(8G/L	.	4.r	.	4.r	.
8AA/	.	8F#/	.	.	.	.	.
[8AA-/J)	.	[8Fn/J)	.	.	.	.	.
=139	=139	=139	=139	=139	=139	=139	=139
(8AA-/L]	.	(8F/L]	.	(16d/LL	.	4.r	.
.	.	.	.	16e/J	.	.	.
8GG/)	.	16D/L	.	8fn/	.	.	.
.	.	16E/	.	.	.	.	.
8GG/J	.	16Fn/JJ)	.	16a/Jk)	.	.	.
.	.	16r	.	16r	.	.	.
=140	=140	=140	=140	=140	=140	=140	=140
8GG/L	.	(8E/	.	(8c/	.	(16dd\LL	.
.	.	.	.	.	.	16ee\J	.
8GG/	.	4D;/)	.	4B;/)	.	8ffn\	.
8GG;/J	.	.	.	.	.	16gg\Jk)	.
.	.	.	.	.	.	16r;	.
=141	=141	=141	=141	=141	=141	=141	=141
4.r	.	(8G/L	.	(8g/L	.	4.r	.
.	.	8E/	.	8e/	.	.	.
.	.	16G/Jk)	.	16g/Jk)	.	.	.
.	.	16r	.	16r	.	.	.
=142	=142	=142	=142	=142	=142	=142	=142
4.CC/ 4.C/	.	4.r	.	4.r	.	(8gg\L	.
.	.	.	.	.	.	8ee\	.
.	.	.	.	.	.	16gg\Jk)	.
.	.	.	.	.	.	16r	.
=143	=143	=143	=143	=143	=143	=143	=143
(8GG/L	.	(16D/LL	.	(8dd\L	.	(8ddd\L	.
.	.	16B/JJ	.	.	.	.	.
8BB/	.	16g\LL	.	8b\	.	8bb\	.
.	.	16f#\	.	.	.	.	.
8GG/J)	.	16g\	.	16dd\Jk)	.	16ddd\Jk)	.
.	.	16B\JJ)	.	16r	.	16r	.
=144	=144	=144	=144	=144	=144	=144	=144
(8BB/L	p	(16E/LL	p	4.g/	p	4.gg\	p
.	.	16B/JJ	.	.	.	.	.
8EE/	.	16g/LL	.	.	.	.	.
.	.	16F#/	.	.	.	.	.
8BB/J)	.	16G/	.	.	.	.	.
.	.	16e/JJ)	.	.	.	.	.
=145	=145	=145	=145	=145	=145	=145	=145
(8CC/L	.	(16C/LL	.	(16a/LL	.	(16aa\LL	.
.	.	16e\	.	16b/J	.	16bb\J	.
8AA/	.	16d\	.	8cc/	.	8ccc\	.
.	.	16c\	.	.	.	.	.
8DD/J)	.	16c\	.	16f#/Jk)	.	16ff#\Jk)	.
.	.	16A\JJ)	.	16r	.	16r	.
=146	=146	=146	=146	=146	=146	=146	=146
(8D/L	p	(16A/LL	p	(8f#/	p	(8ff#\	p
.	.	16c/	.	.	.	.	.
8DD/	.	16B/	.	4g/)	.	4gg\)	.
.	.	16A/	.	.	.	.	.
8GG/J)	.	16B/	.	.	.	.	.
.	.	16G/JJ)	.	.	.	.	.
=147	=147	=147	=147	=147	=147	=147	=147
(8DD/L	.	(16A\LL	.	(16cc\LL	.	(16ccc\LL	.
.	.	16g\	.	16dd\J	.	16ddd\J	.
8AA/	.	16f#\	.	8ee\	.	8eee\	.
.	.	16e\	.	.	.	.	.
8DD/J)	.	16f#\	.	16a\Jk)	.	16aa\Jk)	.
.	.	16c\JJ)	.	16r	.	16r	.
=148	=148	=148	=148	=148	=148	=148	=148
(8BB/L	p	(16G\LL	p	(8a/	p	(8aa\	p
.	.	16a\	.	.	.	.	.
8DD/	.	16g\	.	4b/)	.	4bb\)	.
.	.	16f#\	.	.	.	.	.
8BB/J)	.	16g\	.	.	.	.	.
.	.	16G\JJ)	.	.	.	.	.
=149	=149	=149	=149	=149	=149	=149	=149
(8DD/L	.	(16A\LL	.	(16cc\LL	.	(16ccc\LL	.
.	.	16g\	.	16dd\J	.	16ddd\J	.
8AA/	.	16f#\	.	8ee\	.	8eee\	.
.	.	16e\	.	.	.	.	.
8DD/J)	.	16d\	.	16ff#\Jk)	.	16fff#\Jk)	.
.	.	16c\JJ)	.	16r	.	16r	.
=150	=150	=150	=150	=150	=150	=150	=150
(8D/L	f	(16c\LL	f	(8ff#\	f	(8fff#\	f
.	.	16cc\	.	.	.	.	.
8DD/	.	16b\	.	4gg\)	.	4ggg\)	.
.	.	16a\J	.	.	.	.	.
8GG/J)	.	8b\J)	.	.	.	.	.
==	==	==	==	==	==	==	==
*-	*-	*-	*-	*-	*-	*-	*-
!!!ENC: Craig Stuart Sapp
!!!END: 2004/09/10/
